polaris-icons/icons/newicons/DiscountAutomaticMajor.svg

<svg width="20" height="20" viewBox="0 0 20 20" fill="none" xmlns="http://www.w3.org/2000/svg">
<path d="M10 3C10 3.55228 9.55228 4 9 4C8.44772 4 8 3.55228 8 3C8 2.44772 8.44772 2 9 2C9.55228 2 10 2.44772 10 3Z" fill="black"/>
<path d="M9.78033 7.53033L13.7803 3.53033C14.0732 3.23744 14.0732 2.76256 13.7803 2.46967C13.4874 2.17678 13.0126 2.17678 12.7197 2.46967L8.71967 6.46967C8.42678 6.76256 8.42678 7.23744 8.71967 7.53033C9.01256 7.82322 9.48744 7.82322 9.78033 7.53033Z" fill="black"/>
<path d="M3.75 3C3.33579 3 3 3.33579 3 3.75C3 4.16421 3.33579 4.5 3.75 4.5H5.08591L5.88848 11.0811C5.88924 11.0882 5.89011 11.0953 5.89107 11.1023L6.25552 14.0908C6.30141 14.4671 6.6209 14.75 7 14.75H15.25C15.6642 14.75 16 14.4142 16 14C16 13.5858 15.6642 13.25 15.25 13.25H7.66409L7.48117 11.75H15.75C16.1232 11.75 16.4397 11.4756 16.4925 11.1061L17.2425 5.85607C17.301 5.44602 17.0161 5.06612 16.6061 5.00754C16.196 4.94896 15.8161 5.23388 15.7575 5.64393L15.0995 10.25H7.29824L6.49448 3.65921C6.44859 3.2829 6.1291 3 5.75 3H3.75Z" fill="black"/>
<path d="M8 17.5C8.55228 17.5 9 17.0523 9 16.5C9 15.9477 8.55228 15.5 8 15.5C7.44772 15.5 7 15.9477 7 16.5C7 17.0523 7.44772 17.5 8 17.5Z" fill="black"/>
<path d="M15 16.5C15 17.0523 14.5523 17.5 14 17.5C13.4477 17.5 13 17.0523 13 16.5C13 15.9477 13.4477 15.5 14 15.5C14.5523 15.5 15 15.9477 15 16.5Z" fill="black"/>
<path d="M13 8C13.5523 8 14 7.55228 14 7C14 6.44772 13.5523 6 13 6C12.4477 6 12 6.44772 12 7C12 7.55228 12.4477 8 13 8Z" fill="black"/>
</svg>

<svg viewBox="0 0 20 20" fill="none" xmlns="http://www.w3.org/2000/svg"><path d="M10 3a1 1 0 1 1-2 0 1 1 0 0 1 2 0Z" fill="#000"/><path d="m9.78 7.53 4-4a.75.75 0 0 0-1.06-1.06l-4 4a.75.75 0 0 0 1.06 1.06Z" fill="#000"/><path d="M3.75 3a.75.75 0 0 0 0 1.5h1.336l.802 6.581.003.021.365 2.989a.75.75 0 0 0 .744.659h8.25a.75.75 0 0 0 0-1.5h-7.586l-.183-1.5h8.269a.75.75 0 0 0 .742-.644l.75-5.25a.75.75 0 0 0-1.485-.212l-.657 4.606h-7.802l-.804-6.59a.75.75 0 0 0-.744-.66h-2Z" fill="#000"/><path d="M8 17.5a1 1 0 1 0 0-2 1 1 0 0 0 0 2Z" fill="#000"/><path d="M15 16.5a1 1 0 1 1-2 0 1 1 0 0 1 2 0Z" fill="#000"/><path d="M13 8a1 1 0 1 0 0-2 1 1 0 0 0 0 2Z" fill="#000"/></svg>
